www/assets/icons/video_camera_back.svg

<svg xmlns="http://www.w3.org/2000/svg" width="24" height="24" viewBox="0 0 24 24" fill='currentColor'><path d="M18 10.48V6c0-1.1-.9-2-2-2H4c-1.1 0-2 .9-2 2v12c0 1.1.9 2 2 2h12c1.1 0 2-.9 2-2v-4.48l4 3.98v-11zM5 16l2.38-3.17L9 15l2.62-3.5L15 16z"/></svg>

<svg width="24" height="24" viewBox="0 0 24 24" xmlns="http://www.w3.org/2000/svg" fill='currentColor'><path d="M18 10.48V6C18 4.9 17.1 4 16 4H4C2.9 4 2 4.9 2 6V18C2 19.1 2.9 20 4 20H16C17.1 20 18 19.1 18 18V13.52L22 17.5V6.5L18 10.48ZM5 16L7.38 12.83L9 15L11.62 11.5L15 16H5Z"/></svg>
